Newaita/actions/24/kdenlive-show-video.svg

<svg height="24" viewBox="0 0 24 24" width="24" xmlns="http://www.w3.org/2000/svg"><g fill="#424242"><path d="m15.378906 17.054688h.992188c.277344 0 .496094.222656.496094.496093v.992188c0 .277343-.21875.496093-.496094.496093h-.992188c-.273437 0-.496094-.21875-.496094-.496093v-.992188c0-.273437.222657-.496093.496094-.496093zm0 0"/><path d="m15.378906 13.085938h.992188c.277344 0 .496094.222656.496094.496093v.992188c0 .277343-.21875.496093-.496094.496093h-.992188c-.273437 0-.496094-.21875-.496094-.496093v-.992188c0-.273437.222657-.496093.496094-.496093zm0 0"/><path d="m15.378906 9.117188h.992188c.277344 0 .496094.222656.496094.496093v.992188c0 .273437-.21875.496093-.496094.496093h-.992188c-.273437 0-.496094-.222656-.496094-.496093v-.992188c0-.273437.222657-.496093.496094-.496093zm0 0"/><path d="m15.378906 5.148438h.992188c.277344 0 .496094.222656.496094.496093v.992188c0 .273437-.21875.496093-.496094.496093h-.992188c-.273437 0-.496094-.222656-.496094-.496093v-.992188c0-.273437.222657-.496093.496094-.496093zm0 0"/><path d="m5.953125 2.171875c-1.097656 0-1.984375.886719-1.984375 1.984375v15.875c0 1.101562.886719 1.988281 1.984375 1.988281h11.90625c1.101563 0 1.984375-.886719 1.984375-1.988281v-15.875c0-1.097656-.882812-1.984375-1.984375-1.984375zm.992187 1.984375h9.921876c.550781 0 .992187.441406.992187.992188v13.890624c0 .550782-.441406.992188-.992187.992188h-9.921876c-.550781 0-.992187-.441406-.992187-.992188v-13.890624c0-.550782.441406-.992188.992187-.992188zm0 0"/><path d="m7.441406 17.054688h.992188c.273437 0 .496094.222656.496094.496093v.992188c0 .277343-.222657.496093-.496094.496093h-.992188c-.273437 0-.496094-.21875-.496094-.496093v-.992188c0-.273437.222657-.496093.496094-.496093zm0 0"/><path d="m7.441406 13.085938h.992188c.273437 0 .496094.222656.496094.496093v.992188c0 .277343-.222657.496093-.496094.496093h-.992188c-.273437 0-.496094-.21875-.496094-.496093v-.992188c0-.273437.222657-.496093.496094-.496093zm0 0"/><path d="m7.441406 9.117188h.992188c.273437 0 .496094.222656.496094.496093v.992188c0 .273437-.222657.496093-.496094.496093h-.992188c-.273437 0-.496094-.222656-.496094-.496093v-.992188c0-.273437.222657-.496093.496094-.496093zm0 0"/><path d="m7.441406 5.148438h.992188c.273437 0 .496094.222656.496094.496093v.992188c0 .273437-.222657.496093-.496094.496093h-.992188c-.273437 0-.496094-.222656-.496094-.496093v-.992188c0-.273437.222657-.496093.496094-.496093zm0 0"/></g></svg>

<?xml version="1.0" encoding="UTF-8"?>
<svg xmlns="http://www.w3.org/2000/svg" xmlns:xlink="http://www.w3.org/1999/xlink" width="24px" height="24px" viewBox="0 0 24 24" version="1.1">
<g id="surface1">
<path style=" stroke:none;fill-rule:nonzero;fill:rgb(25.882354%,25.882354%,25.882354%);fill-opacity:1;" d="M 15.378906 17.054688 L 16.371094 17.054688 C 16.648438 17.054688 16.867188 17.277344 16.867188 17.550781 L 16.867188 18.542969 C 16.867188 18.820312 16.648438 19.039062 16.371094 19.039062 L 15.378906 19.039062 C 15.105469 19.039062 14.882812 18.820312 14.882812 18.542969 L 14.882812 17.550781 C 14.882812 17.277344 15.105469 17.054688 15.378906 17.054688 Z M 15.378906 17.054688 "/>
<path style=" stroke:none;fill-rule:nonzero;fill:rgb(25.882354%,25.882354%,25.882354%);fill-opacity:1;" d="M 15.378906 13.085938 L 16.371094 13.085938 C 16.648438 13.085938 16.867188 13.308594 16.867188 13.582031 L 16.867188 14.574219 C 16.867188 14.851562 16.648438 15.070312 16.371094 15.070312 L 15.378906 15.070312 C 15.105469 15.070312 14.882812 14.851562 14.882812 14.574219 L 14.882812 13.582031 C 14.882812 13.308594 15.105469 13.085938 15.378906 13.085938 Z M 15.378906 13.085938 "/>
<path style=" stroke:none;fill-rule:nonzero;fill:rgb(25.882354%,25.882354%,25.882354%);fill-opacity:1;" d="M 15.378906 9.117188 L 16.371094 9.117188 C 16.648438 9.117188 16.867188 9.339844 16.867188 9.613281 L 16.867188 10.605469 C 16.867188 10.878906 16.648438 11.101562 16.371094 11.101562 L 15.378906 11.101562 C 15.105469 11.101562 14.882812 10.878906 14.882812 10.605469 L 14.882812 9.613281 C 14.882812 9.339844 15.105469 9.117188 15.378906 9.117188 Z M 15.378906 9.117188 "/>
<path style=" stroke:none;fill-rule:nonzero;fill:rgb(25.882354%,25.882354%,25.882354%);fill-opacity:1;" d="M 15.378906 5.148438 L 16.371094 5.148438 C 16.648438 5.148438 16.867188 5.371094 16.867188 5.644531 L 16.867188 6.636719 C 16.867188 6.910156 16.648438 7.132812 16.371094 7.132812 L 15.378906 7.132812 C 15.105469 7.132812 14.882812 6.910156 14.882812 6.636719 L 14.882812 5.644531 C 14.882812 5.371094 15.105469 5.148438 15.378906 5.148438 Z M 15.378906 5.148438 "/>
<path style=" stroke:none;fill-rule:nonzero;fill:rgb(25.882354%,25.882354%,25.882354%);fill-opacity:1;" d="M 5.953125 2.171875 C 4.855469 2.171875 3.96875 3.058594 3.96875 4.15625 L 3.96875 20.03125 C 3.96875 21.132812 4.855469 22.019531 5.953125 22.019531 L 17.859375 22.019531 C 18.960938 22.019531 19.84375 21.132812 19.84375 20.03125 L 19.84375 4.15625 C 19.84375 3.058594 18.960938 2.171875 17.859375 2.171875 Z M 6.945312 4.15625 L 16.867188 4.15625 C 17.417969 4.15625 17.859375 4.597656 17.859375 5.148438 L 17.859375 19.039062 C 17.859375 19.589844 17.417969 20.03125 16.867188 20.03125 L 6.945312 20.03125 C 6.394531 20.03125 5.953125 19.589844 5.953125 19.039062 L 5.953125 5.148438 C 5.953125 4.597656 6.394531 4.15625 6.945312 4.15625 Z M 6.945312 4.15625 "/>
<path style=" stroke:none;fill-rule:nonzero;fill:rgb(25.882354%,25.882354%,25.882354%);fill-opacity:1;" d="M 7.441406 17.054688 L 8.433594 17.054688 C 8.707031 17.054688 8.929688 17.277344 8.929688 17.550781 L 8.929688 18.542969 C 8.929688 18.820312 8.707031 19.039062 8.433594 19.039062 L 7.441406 19.039062 C 7.167969 19.039062 6.945312 18.820312 6.945312 18.542969 L 6.945312 17.550781 C 6.945312 17.277344 7.167969 17.054688 7.441406 17.054688 Z M 7.441406 17.054688 "/>
<path style=" stroke:none;fill-rule:nonzero;fill:rgb(25.882354%,25.882354%,25.882354%);fill-opacity:1;" d="M 7.441406 13.085938 L 8.433594 13.085938 C 8.707031 13.085938 8.929688 13.308594 8.929688 13.582031 L 8.929688 14.574219 C 8.929688 14.851562 8.707031 15.070312 8.433594 15.070312 L 7.441406 15.070312 C 7.167969 15.070312 6.945312 14.851562 6.945312 14.574219 L 6.945312 13.582031 C 6.945312 13.308594 7.167969 13.085938 7.441406 13.085938 Z M 7.441406 13.085938 "/>
<path style=" stroke:none;fill-rule:nonzero;fill:rgb(25.882354%,25.882354%,25.882354%);fill-opacity:1;" d="M 7.441406 9.117188 L 8.433594 9.117188 C 8.707031 9.117188 8.929688 9.339844 8.929688 9.613281 L 8.929688 10.605469 C 8.929688 10.878906 8.707031 11.101562 8.433594 11.101562 L 7.441406 11.101562 C 7.167969 11.101562 6.945312 10.878906 6.945312 10.605469 L 6.945312 9.613281 C 6.945312 9.339844 7.167969 9.117188 7.441406 9.117188 Z M 7.441406 9.117188 "/>
<path style=" stroke:none;fill-rule:nonzero;fill:rgb(25.882354%,25.882354%,25.882354%);fill-opacity:1;" d="M 7.441406 5.148438 L 8.433594 5.148438 C 8.707031 5.148438 8.929688 5.371094 8.929688 5.644531 L 8.929688 6.636719 C 8.929688 6.910156 8.707031 7.132812 8.433594 7.132812 L 7.441406 7.132812 C 7.167969 7.132812 6.945312 6.910156 6.945312 6.636719 L 6.945312 5.644531 C 6.945312 5.371094 7.167969 5.148438 7.441406 5.148438 Z M 7.441406 5.148438 "/>
</g>
</svg>
